pix_core/e/visual_aid.svg

<!DOCTYPE svg PUBLIC "-//W3C//DTD SVG 1.1//EN" "http://www.w3.org/Graphics/SVG/1.1/DTD/svg11.dtd" [
	<!ENTITY ns_flows "http://ns.adobe.com/Flows/1.0/">
]><svg xmlns="http://www.w3.org/2000/svg" width="16" height="16" viewBox="0 0 16 16" preserveAspectRatio="xMinYMid meet" overflow="visible"><path d="M15 11v4h-4v-1h3v-3h1zm-5 4v-1h-2v-3h-1v3h-2v1h5zm-6-1h-3v-3h-1v4h4v-1zm11-4v-5h-1v2h-3v1h3v2h1zm-8-2v2h1v-2h2v-1h-2v-2h-1v2h-2v1h2zm-6 0h3v-1h-3v-2h-1v5h1v-2zm13-7v3h1v-4h-4v1h3zm-7 0v3h1v-3h2v-1h-5v1h2zm-6 0h3v-1h-4v4h1v-3z" fill="#888"/></svg>

<?xml version="1.0" encoding="utf-8"?>
<!-- Generator: Adobe Illustrator 15.1.0, SVG Export Plug-In  -->
<!DOCTYPE svg PUBLIC "-//W3C//DTD SVG 1.1//EN" "http://www.w3.org/Graphics/SVG/1.1/DTD/svg11.dtd" [
	<!ENTITY ns_flows "http://ns.adobe.com/Flows/1.0/">
]>
<svg version="1.1"
	 xmlns="http://www.w3.org/2000/svg" xmlns:xlink="http://www.w3.org/1999/xlink" xmlns:a="http://ns.adobe.com/AdobeSVGViewerExtensions/3.0/"
	 x="0px" y="0px" width="16px" height="16px" viewBox="0 0 16 16" style="overflow:visible;enable-background:new 0 0 16 16;"
	 xml:space="preserve" preserveAspectRatio="xMinYMid meet">
<defs>
</defs>
<path style="fill:#29a1c4;" d="M15,11v4h-4v-1h3v-3H15z M10,15v-1H8v-3H7v3H5v1H10z M4,14H1v-3H0v4h4V14z M15,10V5h-1v2h-3v1h3v2H15
	z M7,8v2h1V8h2V7H8V5H7v2H5v1H7z M1,8h3V7H1V5H0v5h1V8z M14,1v3h1V0h-4v1H14z M7,1v3h1V1h2V0H5v1H7z M1,1h3V0H0v4h1V1z"/>
</svg>
